X:34
T:Bridgewater Boys
M:C
L:1/8
C:Ernie Benoit
N:From Belting You With Reels
N:Sue Sternberg & Sam Bartlett, Stuntology 003
N:Transcribed by Bruce Thomson
K:G
|:â€Dâ€Adcd Adcd|Adcd fdcd|Adcd Adcd|â€Gâ€BGAB cBAG|
â€œDâ€Adcd Adcd|Adcd fdef|gfe^c d=cAB|cBAG â€œCâ€c4:|
|:â€Dâ€AGFG AcAG|FDCD FDCD|AGFG ABcA|dcAFâ€Gâ€G4|
â€œDâ€AGFG AcAG |FDCD FDCD|AGFG AdcA|GFDC â€œGâ€D4:|

